X: 21839
T: Kipeen Scanlon's
R: hornpipe
M: 4/4
K: Gmajor
(3BdB GB (3ABc FA|GBDC B,DGF|EGcB Acfg|(3agf (3gfe fdcA|
(3Bcd (3Bcd cAFA|GDB,D GDB,D|EcBc DAFA|G2 B2 G2:|
(3ded Bd bgdB|(3cdc Ac agfe|(3dgd Bd (3cdc Ac|(3BdB GB ADFA|
(3Bcd (3Bcd cAFA|GDB,D GDB,D|EcBc DAFA|G2 B2 G2:|

